icons/jenkins.svg

<svg width="16" height="16" viewBox="0 0 16 16" fill="none" xmlns="http://www.w3.org/2000/svg">
<path d="M10.7654 11.9273L9.55735 12.1063L7.92751 12.2917L6.8729 12.3172L5.84386 12.2853L5.05767 12.0424L4.36096 11.2881L3.81768 9.74777L3.69625 9.41538L2.97403 9.17254L2.55211 8.47589L2.25174 7.47874L2.58412 6.60314L3.37031 6.32828L4.00307 6.62871L4.30343 7.29348L4.66777 7.23589L4.78919 7.08252L4.66777 6.3858L4.63582 5.51014L4.81476 4.30216L4.80839 3.61188L5.35804 2.72984L6.32318 2.03312L8.0106 1.3109L9.88335 1.58569L11.5132 2.76179L12.2674 3.96977L12.7531 4.84543L12.8746 7.01855L12.5103 8.8913L11.8455 10.5532L11.2192 11.4416" fill="#F0D6B7"/>
<path d="M2.58413 6.61589L3.37032 6.3411L4.00307 6.64147L4.30344 7.30623L4.66778 7.24871L4.75731 6.88438L4.5783 6.18766L4.75725 4.52587L4.60388 3.61826L5.14715 2.98551L6.32319 2.05232L5.9908 1.59851L4.32901 2.41659L3.63236 2.95993L3.24246 3.80358L2.64165 4.62172L2.46271 5.58686L2.58413 6.61589" fill="#6D6B6D"/>
<path d="M11.4493 13.9343C10.938 13.9215 10.4713 13.8576 10.0687 13.7426C10.0943 13.5764 10.0431 13.4166 10.0879 13.2951C10.2029 13.212 10.3882 13.212 10.5608 13.1929C10.4138 13.1226 10.2029 13.0906 10.0367 13.1354C10.0303 13.0203 9.97921 12.95 9.9472 12.8605C10.2349 12.7582 10.9124 12.0871 11.2959 12.3044C11.4812 12.4131 11.558 13.0139 11.5707 13.3143C11.5835 13.5572 11.5451 13.8001 11.4493 13.9343" fill="#D33833"/>
<path d="M9.00131 13.1003C9.00131 13.1387 9.00131 13.1769 8.99487 13.2153C8.83512 13.3176 8.57939 13.3176 8.40044 13.4071C8.65617 13.4198 8.86069 13.4837 9.03964 13.5668C9.0332 13.6627 9.0332 13.765 9.02688 13.8609C8.73283 14.059 8.46441 14.3595 8.11927 14.5512C7.95308 14.6407 7.38423 14.8708 7.21166 14.826C7.11574 14.8004 7.10299 14.679 7.06466 14.564C6.98157 14.3211 6.7898 13.9248 6.77061 13.5541C6.75141 13.0875 6.70033 12.3013 7.20522 12.3972C7.61425 12.4739 8.08726 12.6593 8.40044 12.8318C8.59859 12.9469 8.70726 13.0747 9.00131 13.1003Z" fill="#D33833"/>
<path d="M9.28893 13.6531C9.24416 13.3973 9.19301 13.3271 9.21221 13.1034C9.89611 12.6495 10.0175 13.8832 9.28887 13.6531" fill="#D33833"/>
<path d="M7.90194 4.16154C7.07742 3.96977 6.66838 4.50667 6.4191 5.06271C6.19538 5.01163 6.28485 4.70482 6.34244 4.55144C6.48937 4.14878 7.08386 3.60544 7.56955 3.68216C7.77407 3.70773 8.05531 3.89949 7.90194 4.16154V4.16154ZM11.9095 5.09466H11.9478C12.1332 5.47819 12.2929 5.88729 12.5295 6.23243C12.3697 6.60314 11.3406 6.9227 11.3534 6.27075C11.5771 6.1749 11.9606 6.25156 12.1588 6.12376C12.0437 5.81057 11.8839 5.54209 11.9095 5.09472V5.09466ZM8.31742 5.10754C8.49636 5.43348 8.55382 5.77224 8.80311 6.01515C8.91822 6.12376 9.13549 6.258 9.02689 6.56475C9.00132 6.63509 8.81593 6.7949 8.70726 6.82685C8.31742 6.9419 7.40336 6.85242 7.71017 6.36023C8.03612 6.37305 8.47079 6.57119 8.7137 6.33465C8.52831 6.04066 8.19593 5.45261 8.31742 5.10754ZM11.7625 8.39273C11.1744 8.76988 10.516 9.18536 9.5446 9.08944C9.34008 8.9105 9.25698 8.50777 9.4615 8.24579C9.56373 8.42474 9.49983 8.75712 9.79388 8.80821C10.3435 8.90412 10.9827 8.46944 11.379 8.32251C11.6218 7.90703 11.3598 7.76004 11.1361 7.49155C10.6823 6.94828 10.0815 6.27075 10.1006 5.45906C10.286 5.32481 10.2988 5.66357 10.3243 5.7211C10.5608 6.27075 11.1553 6.98023 11.5835 7.45323C11.6921 7.56827 11.8647 7.68332 11.8839 7.76004C11.9414 7.97731 11.7369 8.24573 11.7625 8.39279V8.39273ZM3.97743 7.99651C3.79211 7.88784 3.7474 7.42765 3.53007 7.41484C3.21688 7.3957 3.2744 8.0157 3.2744 8.37997C3.06351 8.18827 3.02511 7.5874 3.17855 7.28066C2.99961 7.19112 2.92282 7.37651 2.82059 7.44041C2.95484 6.51366 4.18201 7.01218 3.9775 7.99651H3.97743ZM12.1332 8.78263C11.8583 9.30678 11.4684 9.88201 10.6631 9.90121C10.6439 9.73501 10.6312 9.47297 10.6631 9.37068C11.2831 9.30678 11.6666 8.99359 12.1332 8.78263V8.78263ZM8.27265 9.12139C8.78398 9.38988 9.72992 9.42183 10.433 9.40263C10.4713 9.55607 10.4713 9.74777 10.4713 9.93316C9.57017 9.97148 8.50912 9.74777 8.27265 9.12139ZM8.1768 9.61997C8.53469 10.5148 9.75549 10.4125 10.7845 10.387C10.7398 10.502 10.6439 10.6426 10.5161 10.6873C10.1837 10.8216 9.27611 10.9239 8.81593 10.681C8.52831 10.5276 8.33655 10.176 8.1768 9.97148C8.10646 9.87563 7.72299 9.62634 8.1768 9.61997" fill="#231F20"/>
<path d="M10.2221 12.2789C10.0048 12.4195 9.82583 12.592 9.61487 12.7455C9.15469 12.771 8.9054 12.7135 8.57308 12.4515C8.57946 12.4323 8.61141 12.4387 8.61141 12.4131C9.10354 12.6304 9.72992 12.3236 10.2221 12.2788" fill="#F0D6B7"/>
<path fill-rule="evenodd" clip-rule="evenodd" d="M12.0005 10.6546C12.0479 10.5511 12.1166 10.4359 12.1796 10.3303C12.2312 10.2438 12.279 10.1637 12.308 10.1018C12.4366 9.83292 12.5277 9.51604 12.5962 9.27809C12.6026 9.25578 12.6088 9.23417 12.6148 9.21335C13.1262 7.41088 13.1836 4.93733 12.4486 3.46086C12.1738 2.89839 11.4004 2.12502 10.9147 1.76068C9.77058 0.897839 7.65492 0.801989 6.28074 1.30688C6.24577 1.31971 6.21091 1.33243 6.17616 1.34511C5.82993 1.47146 5.49567 1.59343 5.18781 1.7735C5.04253 1.85901 4.89577 1.93987 4.75064 2.01983C3.99539 2.43594 3.28455 2.82758 3.05939 3.7229C2.40107 4.0169 2.20293 4.86061 2.23488 5.83856C2.23747 5.91668 2.25706 6.00224 2.27676 6.08832C2.30541 6.21347 2.3343 6.33972 2.31159 6.44574C2.29966 6.50137 2.24821 6.56938 2.20484 6.62669C2.17846 6.66156 2.15508 6.69247 2.1454 6.71423C1.82577 7.46202 2.08144 8.45273 2.44584 8.98964C2.66311 9.3092 3.03382 9.59682 3.5132 9.67347C3.53233 9.96115 3.60267 10.2104 3.73691 10.5044C3.75932 10.5544 3.79846 10.6151 3.84142 10.6817C3.92413 10.8099 4.021 10.9601 4.03991 11.0983L4.36831 11.8975C4.46741 11.9965 4.60228 12.1548 4.71839 12.291C4.82807 12.4197 4.92102 12.5288 4.95127 12.5497C5.30229 12.8004 5.7241 13.0079 6.14575 13.2153C6.26157 13.2722 6.37738 13.3292 6.4917 13.387C6.52365 13.6236 6.60031 13.9367 6.72817 14.3522C6.74349 14.3994 6.75846 14.4489 6.77367 14.4991C6.8967 14.9055 7.03582 15.365 7.50446 15.1704L7.57018 15.1351L7.57037 15.135L8.77855 14.4208L9.07143 14.1727C9.09183 14.1494 9.11161 14.1262 9.13138 14.1029C9.15855 14.0709 9.18572 14.039 9.21448 14.007C9.35682 14.067 9.47061 14.0106 9.57773 13.9574C9.65342 13.9199 9.72577 13.8841 9.80252 13.892V13.892C9.8736 13.8982 9.93988 13.9346 10.0076 13.9802L11.1892 14.1513L11.1899 14.1514L11.2318 14.1691C11.288 14.1851 11.3413 14.208 11.3912 14.2362L11.3918 14.2364L11.7001 14.0091C12.025 13.378 11.8686 11.4848 11.0361 11.8849C11.0901 11.804 11.1863 11.7301 11.287 11.6527C11.3961 11.5688 11.5105 11.4808 11.5826 11.3753L11.5801 11.3678L12.0005 10.6546ZM11.0361 11.8849C11.0361 11.885 11.0361 11.885 11.0361 11.885V11.885C11.0361 11.885 11.0361 11.885 11.0361 11.8849ZM9.2422 13.4552C9.21444 13.3388 9.19507 13.2576 9.2081 13.1058C9.892 12.652 10.0134 13.8856 9.28475 13.6555C9.27039 13.5733 9.25535 13.5103 9.2422 13.4552ZM7.20111 12.4028C7.61021 12.4794 8.08315 12.6647 8.39634 12.8374C8.4485 12.866 8.49447 12.8959 8.53925 12.9251C8.66455 13.0067 8.78057 13.0822 8.9972 13.1058C8.99076 13.1442 8.99076 13.1825 8.99076 13.2209C8.90559 13.2754 8.79133 13.3008 8.67705 13.3263C8.577 13.3486 8.47693 13.3709 8.39634 13.4127C8.65844 13.4254 8.85658 13.4829 9.03553 13.5724C9.03234 13.6203 9.03075 13.6699 9.02915 13.7194C9.02756 13.7689 9.02597 13.8185 9.02278 13.8664C8.90674 13.9471 8.7947 14.0428 8.68036 14.1404C8.50494 14.2901 8.32411 14.4445 8.11516 14.5567C7.95535 14.6462 7.38012 14.8699 7.20755 14.8315C7.13068 14.811 7.10723 14.729 7.08121 14.638C7.07477 14.6154 7.06817 14.5923 7.06055 14.5695C7.04001 14.5079 7.01282 14.4376 6.98324 14.3612C6.89318 14.1286 6.78095 13.8387 6.7665 13.5596C6.76584 13.5437 6.76515 13.5274 6.76445 13.5108C6.74446 13.0404 6.71344 12.3101 7.20111 12.4028ZM6.44056 12.9397C6.1273 12.9205 5.13028 12.5625 5.39233 12.2941C5.56441 12.4145 5.84364 12.4336 6.1228 12.4528C6.25838 12.462 6.39394 12.4713 6.51721 12.4922C6.52712 12.5549 6.50639 12.6278 6.484 12.7065C6.46301 12.7803 6.44056 12.8592 6.44056 12.9397ZM8.61374 12.4155V12.4155H8.61367C8.6137 12.4155 8.61372 12.4155 8.61374 12.4155ZM8.61374 12.4155C8.61373 12.4297 8.60386 12.4341 8.59399 12.4384C8.58609 12.4419 8.57818 12.4454 8.57535 12.4539C8.91411 12.7159 9.16333 12.7734 9.61714 12.7479C9.70416 12.6854 9.78769 12.6171 9.87169 12.5484C9.98517 12.4556 10.0995 12.3621 10.2244 12.2813C10.0645 12.2956 9.89152 12.3369 9.71423 12.3792C9.33861 12.4689 8.94373 12.5631 8.61374 12.4155ZM11.2917 12.3005C11.4771 12.4091 11.5539 13.0163 11.5666 13.3104C11.5794 13.5596 11.541 13.8025 11.4452 13.9303C10.9339 13.9112 10.4672 13.8536 10.0646 13.7386C10.0802 13.6575 10.076 13.5779 10.072 13.5035C10.0679 13.4255 10.0641 13.3533 10.0838 13.2912C10.1775 13.2235 10.3178 13.2109 10.46 13.1982C10.4923 13.1953 10.5247 13.1924 10.5567 13.1889C10.4097 13.1186 10.2053 13.0866 10.0326 13.1314C10.0282 13.0508 10.0018 12.9922 9.97537 12.9337C9.96405 12.9085 9.95273 12.8834 9.94314 12.8566C10.0311 12.8253 10.1556 12.7401 10.297 12.6435C10.6178 12.4241 11.0256 12.1452 11.2917 12.3005ZM2.76577 6.23357C2.72069 5.6531 2.66114 4.88621 3.0402 4.46433V4.46439C3.40453 4.05529 3.90948 3.806 4.52942 3.75492C4.69956 4.18701 4.62336 4.66077 4.54573 5.1434C4.47753 5.56743 4.40823 5.9983 4.50391 6.41379C4.51663 6.46852 4.53543 6.52906 4.55466 6.591C4.63203 6.84014 4.71637 7.11173 4.43994 7.11689C4.44639 6.34989 3.494 5.85776 2.77178 6.3115C2.76983 6.28594 2.76781 6.25995 2.76577 6.23357ZM3.46205 3.63981C3.83276 2.82811 4.98966 2.16979 5.89084 1.91412C5.94198 1.90137 5.98675 1.93325 6.02508 1.97802C6.0202 2.0844 5.93858 2.1103 5.85761 2.13599C5.83156 2.14426 5.80557 2.15251 5.78223 2.16341C5.7076 2.25422 5.61488 2.32199 5.51826 2.39262C5.4245 2.46116 5.32705 2.53238 5.23889 2.62997C5.1724 2.70334 5.10261 2.82115 5.02924 2.94501C4.89809 3.1664 4.75548 3.40713 4.59976 3.44811C4.52664 3.46735 4.44657 3.45646 4.3707 3.44614C4.32057 3.43932 4.27228 3.43275 4.22905 3.43529C4.07674 3.44569 3.94881 3.49169 3.81784 3.53879C3.70696 3.57866 3.59391 3.61931 3.46205 3.63981ZM7.06693 1.72873C8.06402 1.23022 9.64915 1.62651 10.5886 2.15697C11.0668 2.42699 11.4311 2.90992 11.7686 3.35733C11.8146 3.41828 11.8601 3.47858 11.9053 3.53758C11.3748 3.37777 10.921 3.64625 11.0041 4.08724C11.4516 3.6782 12.2122 4.08724 12.4358 4.53467C12.6263 4.90997 12.6498 5.44732 12.6743 6.00464C12.6777 6.08324 12.6812 6.16223 12.6851 6.24122C12.7618 7.79434 12.3975 9.3923 11.6178 10.5172C11.5679 10.5867 11.5202 10.6583 11.4726 10.7298C11.3185 10.9611 11.1648 11.1919 10.9402 11.3481C10.2308 11.8467 9.15695 12.2941 8.23659 11.9873C7.06908 11.594 6.51596 10.8286 5.87864 9.94659C5.85303 9.91115 5.82729 9.87552 5.80136 9.83973C5.82056 10.3511 6.17845 10.7665 6.53003 11.1564C6.83684 11.4951 7.20755 11.8787 7.61015 12.0384C7.27783 11.9617 6.7665 11.9361 6.62588 12.2366C5.84613 12.1854 5.12384 12.1087 4.75313 11.5782C4.46552 11.1628 4.17152 10.4533 4.03728 9.91C4.00533 9.79496 3.96056 9.55849 3.97338 9.49452C3.9906 9.40361 4.06354 9.33254 4.13737 9.2606C4.25557 9.14543 4.37605 9.02804 4.27375 8.82344C4.11249 8.82344 4.01657 8.90117 3.92099 8.97861C3.83476 9.04848 3.74882 9.11813 3.61543 9.13025C2.88682 9.20053 2.37549 8.16512 2.40744 7.53874C2.43302 7.00822 2.88682 6.49689 3.50038 6.56717C3.93506 6.61831 4.08205 7.09125 4.16515 7.51317C4.41437 7.52592 4.77233 7.50679 4.89375 7.30865C4.88463 7.08001 4.83041 6.87463 4.77758 6.67448C4.71964 6.45497 4.66336 6.24176 4.67004 6.01107C4.68122 5.72305 4.74308 5.44517 4.80415 5.17089C4.91789 4.66 5.02885 4.16161 4.80428 3.6335C5.17505 2.7961 6.26155 2.13139 7.06693 1.72873Z" fill="black"/>
</svg>

<svg xmlns="http://www.w3.org/2000/svg" width="16" height="16" fill="none"><path fill="#F0D6B7" d="m10.765 11.927-1.208.18-1.63.185-1.054.025-1.03-.032-.785-.243-.697-.754-.543-1.54-.122-.333-.722-.242-.422-.697-.3-.997.332-.876.786-.275.633.3.3.665.365-.057.121-.153-.121-.697-.032-.876.179-1.208-.007-.69.55-.882.965-.697 1.688-.722 1.872.275 1.63 1.176.754 1.208.486.875.122 2.174-.365 1.872-.665 1.662-.626.889"/><path fill="#6D6B6D" d="m2.584 6.616.786-.275.633.3.3.665.365-.057.09-.365-.18-.696.18-1.662-.154-.908.543-.632 1.176-.934-.332-.453-1.662.818-.697.543-.39.844-.6.818-.18.965.122 1.029"/><path fill="#D33833" d="M11.45 13.934a5.582 5.582 0 0 1-1.381-.191c.025-.167-.026-.326.019-.448.115-.083.3-.083.473-.102a.817.817 0 0 0-.524-.058c-.007-.115-.058-.185-.09-.274.288-.103.965-.774 1.349-.557.185.11.262.71.275 1.01.013.243-.026.486-.122.62M9.001 13.1c0 .039 0 .077-.006.115-.16.103-.416.103-.595.192.256.013.46.077.64.16-.007.096-.007.198-.013.294-.294.198-.563.498-.908.69-.166.09-.735.32-.907.275-.096-.026-.109-.147-.147-.262-.083-.243-.275-.64-.294-1.01-.02-.466-.07-1.253.434-1.157.41.077.882.262 1.195.435.199.115.307.243.601.268ZM9.289 13.653c-.045-.256-.096-.326-.077-.55.684-.454.806.78.077.55"/><path fill="#231F20" d="M7.902 4.162c-.825-.192-1.234.345-1.483.9-.224-.05-.134-.357-.077-.51.147-.403.742-.947 1.228-.87.204.026.485.217.332.48Zm4.007.933h.039c.185.383.345.792.582 1.137-.16.371-1.19.69-1.177.039.224-.096.608-.02.806-.147-.115-.313-.275-.582-.25-1.03Zm-3.592.013c.18.325.237.664.486.907.115.109.332.243.224.55-.026.07-.211.23-.32.262-.39.115-1.304.025-.997-.467.326.013.76.211 1.004-.025-.186-.294-.518-.882-.397-1.227Zm3.445 3.285c-.588.377-1.246.792-2.217.696-.205-.178-.288-.581-.084-.843.103.179.039.511.333.562.55.096 1.189-.339 1.585-.485.243-.416-.02-.563-.243-.831-.454-.544-1.054-1.221-1.035-2.033.185-.134.198.205.223.262.237.55.831 1.26 1.26 1.732.108.115.28.23.3.307.057.217-.147.486-.122.633Zm-7.785-.396c-.185-.11-.23-.57-.447-.582-.313-.02-.256.6-.256.965-.21-.192-.249-.793-.095-1.1-.18-.089-.256.097-.358.16.134-.926 1.361-.428 1.156.557Zm8.156.786c-.275.524-.665 1.099-1.47 1.118-.02-.166-.032-.428 0-.53.62-.064 1.004-.377 1.47-.588Zm-3.86.338c.511.269 1.457.3 2.16.282.038.153.038.345.038.53-.9.038-1.962-.185-2.198-.812Zm-.096.499c.358.895 1.578.793 2.607.767-.044.115-.14.256-.268.3-.332.135-1.24.237-1.7-.006-.288-.153-.48-.505-.64-.71-.07-.095-.453-.345 0-.351"/><path fill="#F0D6B7" d="M10.222 12.279c-.217.14-.396.313-.607.466-.46.026-.71-.031-1.042-.293.006-.02.038-.013.038-.039.493.217 1.119-.09 1.611-.134"/><path fill="#000" fill-rule="evenodd" d="M12 10.655a3.62 3.62 0 0 1 .18-.325c.051-.086.099-.166.128-.228.129-.27.22-.586.288-.824l.019-.065c.511-1.802.569-4.276-.166-5.752-.275-.563-1.049-1.336-1.534-1.7C9.77.898 7.655.802 6.28 1.307l-.105.038c-.346.126-.68.248-.988.429-.145.085-.292.166-.437.246-.756.416-1.466.808-1.692 1.703-.658.294-.856 1.138-.824 2.116.002.078.022.163.042.25.028.124.057.25.035.357a.564.564 0 0 1-.107.18.568.568 0 0 0-.06.088c-.32.748-.064 1.739.3 2.276.218.32.589.607 1.068.683.02.288.09.537.224.831.022.05.061.111.104.178.083.128.18.278.199.416l.328.8c.1.098.234.257.35.393.11.129.203.238.233.259.351.25.773.458 1.195.665l.346.172c.032.237.108.55.236.965l.046.147c.123.406.262.866.73.671l.066-.035 1.209-.714.292-.248.06-.07.083-.096c.143.06.257.004.364-.05.075-.037.148-.073.225-.065a.449.449 0 0 1 .205.088l1.181.171.043.018a.73.73 0 0 1 .16.067l.308-.227c.325-.631.169-2.524-.664-2.124.054-.081.15-.155.251-.232a1.34 1.34 0 0 0 .296-.278l-.003-.007.42-.713Zm-.964 1.23Zm-1.794 1.57c-.028-.116-.047-.197-.034-.35.684-.453.805.78.077.55-.015-.082-.03-.145-.043-.2Zm-2.04-1.052c.408.076.881.262 1.194.434.052.029.098.059.143.088a.932.932 0 0 0 .458.18c-.006.04-.006.077-.006.116-.085.054-.2.08-.314.105-.1.023-.2.045-.28.087.261.012.46.07.639.16-.004.047-.005.097-.007.146-.001.05-.003.1-.006.147-.116.081-.228.177-.343.274-.175.15-.356.304-.565.417-.16.09-.735.313-.907.274-.077-.02-.1-.102-.127-.193a4.933 4.933 0 0 0-.098-.277c-.09-.232-.202-.522-.216-.801l-.003-.05c-.02-.47-.05-1.2.437-1.107Zm-.761.537c-.314-.02-1.31-.377-1.049-.646.172.12.452.14.73.159.136.009.272.018.395.04a.535.535 0 0 1-.033.213c-.021.074-.043.153-.043.234Zm2.173-.524Zm0 0c0 .014-.01.018-.02.022-.008.004-.016.007-.019.016.34.262.588.32 1.042.294.087-.063.17-.13.255-.2.113-.092.228-.186.352-.267-.16.015-.332.056-.51.098-.375.09-.77.184-1.1.037Zm2.678-.116c.185.11.262.716.275 1.01.012.25-.026.492-.122.62-.511-.019-.978-.076-1.38-.191a.955.955 0 0 0 .007-.236c-.004-.078-.008-.15.012-.212.094-.068.234-.08.376-.093l.097-.01a.812.812 0 0 0-.524-.057.52.52 0 0 0-.058-.197c-.01-.025-.022-.05-.032-.077.088-.032.213-.117.354-.213.32-.22.729-.499.995-.344ZM2.766 6.234c-.045-.58-.105-1.348.274-1.77.365-.409.87-.658 1.49-.71.17.433.093.907.016 1.39-.068.423-.138.854-.042 1.27.013.055.031.115.05.177.078.25.162.52-.114.526.006-.767-.946-1.26-1.668-.806l-.006-.077Zm.696-2.594c.37-.812 1.528-1.47 2.429-1.726.051-.013.096.02.134.064-.005.106-.086.132-.167.158-.026.008-.052.017-.076.027-.074.091-.167.159-.264.23-.093.068-.19.14-.28.237a2.132 2.132 0 0 0-.209.315c-.13.221-.274.462-.43.503a.598.598 0 0 1-.228-.002c-.05-.007-.099-.013-.142-.01-.152.01-.28.056-.411.103-.111.04-.224.08-.356.1Zm3.605-1.911c.997-.499 2.582-.102 3.522.428.478.27.842.753 1.18 1.2l.136.18c-.53-.16-.984.11-.9.55.447-.409 1.207 0 1.43.448.191.375.215.912.24 1.47l.01.236c.077 1.553-.287 3.151-1.067 4.276-.05.07-.098.141-.145.213-.155.231-.308.462-.533.618-.71.499-1.783.946-2.703.64-1.168-.394-1.721-1.16-2.358-2.041L5.8 9.84c.02.511.377.927.729 1.316.307.34.678.723 1.08.882-.332-.076-.844-.102-.984.199-.78-.052-1.502-.128-1.873-.659-.287-.415-.581-1.125-.716-1.668-.032-.115-.076-.352-.064-.415.018-.091.09-.162.164-.234.119-.116.24-.233.137-.438-.162 0-.257.078-.353.156-.086.07-.172.14-.306.151-.728.07-1.24-.965-1.208-1.591.026-.53.48-1.042 1.093-.972.435.051.582.524.665.946.25.013.607-.006.729-.204-.01-.229-.064-.434-.116-.635-.058-.219-.115-.432-.108-.663.011-.288.073-.566.134-.84.114-.511.225-1.01 0-1.538.371-.837 1.458-1.502 2.263-1.904Z" clip-rule="evenodd"/></svg>
